X: 10091
T: Didier's
R: reel
M: 4/4
K: Gminor
G,A,|:LB,3LA,3 LG,2-|G,2 A,/B,/C DGGA|BG G/G/G {A}GFD=E|FDCA, -{C}A,G,G,A,|
LB,3LA,3 LG,2-|G,2 A,/B,/C DGGA|B2G/G/G {A}GFD=E|1 FDCA, -{C}A,G,G,A,:|2 FDCA, -{C}A,G,G,2||
|:GFDC ~B,3A|BGBc c/c/dBc|d/d/d d{e}d- dBGA|BGAF GFDF|
GFDC B,DG,2-|G,BB/B/B BGBc|d2d/d/c dBGA|1 B/c/B AF G3D:|2 BGAF G2||

